svgs/atomic.svg

<svg width="192" height="192" viewBox="0 0 192 192" fill="none" xmlns="http://www.w3.org/2000/svg">
<path d="M154.641 63.7436H120.487C116.295 63.7436 112.897 60.3457 112.897 56.1538V22H44.5897C40.3979 22 37 25.3979 37 29.5897V162.41C37 166.602 40.3979 170 44.5897 170H147.051C151.243 170 154.641 166.602 154.641 162.41V63.7436Z" stroke="black" stroke-width="10" stroke-linecap="round" stroke-linejoin="round"/>
<path d="M112.897 22L154.641 63.7436" stroke="black" stroke-width="10" stroke-linecap="round" stroke-linejoin="round"/>
<path d="M95.8205 155.757C105.926 155.757 114.118 136.219 114.118 112.116C114.118 88.0142 105.926 68.4754 95.8205 68.4754C85.715 68.4754 77.5228 88.0142 77.5228 112.116C77.5228 136.219 85.715 155.757 95.8205 155.757Z" stroke="black" stroke-width="10" stroke-linecap="round" stroke-linejoin="round"/>
<path d="M104.97 127.963C125.843 115.912 138.668 99.0477 133.615 90.2961C128.562 81.5444 107.545 84.2191 86.6719 96.2703C65.7987 108.321 52.9737 125.185 58.0265 133.937C63.0793 142.689 84.0964 140.014 104.97 127.963Z" stroke="black" stroke-width="10" stroke-linecap="round" stroke-linejoin="round"/>
<path d="M133.615 133.937C138.668 125.185 125.843 108.321 104.97 96.2699C84.0963 84.2188 63.0792 81.544 58.0264 90.2957C52.9736 99.0474 65.7986 115.911 86.6718 127.963C107.545 140.014 128.562 142.688 133.615 133.937Z" stroke="black" stroke-width="10" stroke-linecap="round" stroke-linejoin="round"/>
</svg>

<svg width="192" height="192" viewBox="0 0 192 192" fill="none" xmlns="http://www.w3.org/2000/svg"><path d="M154.641 63.744h-34.154a7.59 7.59 0 0 1-7.59-7.59V22H44.59A7.59 7.59 0 0 0 37 29.59v132.82a7.59 7.59 0 0 0 7.59 7.59H147.05a7.59 7.59 0 0 0 7.59-7.59V63.744ZM112.897 22l41.744 41.744" stroke="#000" stroke-width="10" stroke-linecap="round" stroke-linejoin="round"/><path d="M95.82 155.757c10.106 0 18.298-19.538 18.298-43.641 0-24.102-8.192-43.64-18.297-43.64-10.106 0-18.298 19.538-18.298 43.64 0 24.103 8.192 43.641 18.297 43.641Z" stroke="#000" stroke-width="10" stroke-linecap="round" stroke-linejoin="round"/><path d="M104.97 127.963c20.873-12.051 33.698-28.915 28.645-37.667-5.053-8.752-26.07-6.077-46.943 5.974-20.873 12.051-33.698 28.915-28.645 37.667 5.052 8.752 26.07 6.077 46.943-5.974Z" stroke="#000" stroke-width="10" stroke-linecap="round" stroke-linejoin="round"/><path d="M133.615 133.937c5.053-8.752-7.772-25.616-28.645-37.667-20.874-12.051-41.89-14.726-46.944-5.974-5.052 8.751 7.773 25.615 28.646 37.667 20.873 12.051 41.89 14.725 46.943 5.974Z" stroke="#000" stroke-width="10" stroke-linecap="round" stroke-linejoin="round"/></svg>
